X: 1
T: Wise Maid, The
Z: Jeremy
S: https://thesession.org/tunes/118#setting118
R: reel
M: 4/4
L: 1/8
K: Dmaj
|:F2FG FEDE|FAAB AFED|d2eg fdec|dBAG BEED|
F2FG FEDE|FAAB AFED|d2eg fdec|dBAG FDDD:|
|:d2AG FDFA|dfaf gfeg|fedf eAcA|dfed cA A2|
BAGB ADFD|dfaf gfed|Bdce dBAG|FGEF D4:|

